X:2
T:River's Dance - Celtic Jig
C:Alex
M:6/8
L:1/8
K:G

|: GABGAB | c2BA2 | GABGAB | d2BG2 |
   GABcBA | GABd2 | c2BA2 | G4 :|

|: d2efd | c2BG2 | d2efd | c2AG2 |
   d2ef2 | e2dc2 | B2AG2 | A4 :|

|: G2dB2 | G2ec2 | G2dB2 | A4 |
   c2eg2 | f2dB2 | c2ed2 | G4 :|

